img/meta-entfernen.svg

<?xml version="1.0" encoding="UTF-8" standalone="no"?>
<svg
   xmlns:dc="http://purl.org/dc/elements/1.1/"
   xmlns:cc="http://creativecommons.org/ns#"
   xmlns:rdf="http://www.w3.org/1999/02/22-rdf-syntax-ns#"
   xmlns:svg="http://www.w3.org/2000/svg"
   xmlns="http://www.w3.org/2000/svg"
   xmlns:sodipodi="http://sodipodi.sourceforge.net/DTD/sodipodi-0.dtd"
   xmlns:inkscape="http://www.inkscape.org/namespaces/inkscape"
   width="24"
   height="24"
   viewBox="0 0 24 24"
   version="1.1"
   id="svg7"
   sodipodi:docname="meta-loeschen.svg"
   inkscape:version="0.92.3 (2405546, 2018-03-11)">
  <metadata
     id="metadata11">
    <rdf:RDF>
      <cc:Work
         rdf:about="">
        <dc:format>image/svg+xml</dc:format>
        <dc:type
           rdf:resource="http://purl.org/dc/dcmitype/StillImage" />
        <dc:title></dc:title>
      </cc:Work>
    </rdf:RDF>
  </metadata>
  <sodipodi:namedview
     pagecolor="#ffffff"
     bordercolor="#666666"
     borderopacity="1"
     objecttolerance="10"
     gridtolerance="10"
     guidetolerance="10"
     inkscape:pageopacity="0"
     inkscape:pageshadow="2"
     inkscape:window-width="1600"
     inkscape:window-height="849"
     id="namedview9"
     showgrid="true"
     inkscape:zoom="27.166667"
     inkscape:cx="12"
     inkscape:cy="12"
     inkscape:window-x="0"
     inkscape:window-y="24"
     inkscape:window-maximized="1"
     inkscape:current-layer="svg7">
    <inkscape:grid
       type="xygrid"
       id="grid818" />
  </sodipodi:namedview>
  <defs
     id="defs3">
    <style
       id="current-color-scheme"
       type="text/css">
   .ColorScheme-Text { color:#444444; } .ColorScheme-Highlight { color:#5294e2; }
  </style>
  </defs>
  <path
     style="color:#444444;fill:#212121;fill-opacity:1;stroke-width:1.49929476"
     class="ColorScheme-Text"
     d="M 16.500812,5.9955 A 1.4992947,1.4992947 0 0 0 15.440764,6.4347465 L 12.002928,9.8725825 8.5797341,6.449388 A 1.4992947,1.4992947 0 0 0 8.5650925,6.4347465 1.4992947,1.4992947 0 0 0 7.5138292,6.0013566 l -0.014641,0.020498 A 1.4992947,1.4992947 0 0 0 5.999893,7.5211495 1.4992947,1.4992947 0 0 0 6.4391396,8.5811976 L 9.8769754,12.019033 6.4391396,15.45687 a 1.4992947,1.4992947 0 0 0 -0.43339,1.048335 1.4992947,1.4992947 0 0 0 1.4992947,1.499295 1.4992947,1.4992947 0 0 0 1.0600482,-0.439247 l 3.4378355,-3.437837 3.423194,3.423195 a 1.4992947,1.4992947 0 0 0 1.07469,0.453889 1.4992947,1.4992947 0 0 0 1.499295,-1.499295 1.4992947,1.4992947 0 0 0 -0.439246,-1.060049 l -3.44955,-3.446621 3.423194,-3.4231939 A 1.4992947,1.4992947 0 0 0 18.000107,7.4947947 1.4992947,1.4992947 0 0 0 16.500812,5.9955 Z"
     id="path5"
     inkscape:connector-curvature="0" />
</svg>

<?xml version="1.0" encoding="UTF-8"?>
<svg width="24" height="24" version="1.1" viewBox="0 0 24 24" xmlns="http://www.w3.org/2000/svg">
<metadata>
<rdf:RDF xmlns:rdf="http://www.w3.org/1999/02/22-rdf-syntax-ns#" xmlns:rdfs="http://www.w3.org/2000/01/rdf-schema#" xmlns:dc="http://purl.org/dc/elements/1.1/"><rdf:Description dc:publisher="Papirus Development Team" dc:rights="GNU General Public License v3.0"></rdf:Description></rdf:RDF>
</metadata>
<path d="m16.501 5.9955a1.4993 1.4993 0 0 0-1.06 0.43925l-3.4378 3.4378-3.4232-3.4232a1.4993 1.4993 0 0 0-0.014642-0.014642 1.4993 1.4993 0 0 0-1.0513-0.43339l-0.014641 0.020498a1.4993 1.4993 0 0 0-1.4993 1.4993 1.4993 1.4993 0 0 0 0.43925 1.06l3.4378 3.4378-3.4378 3.4378a1.4993 1.4993 0 0 0-0.43339 1.0483 1.4993 1.4993 0 0 0 1.4993 1.4993 1.4993 1.4993 0 0 0 1.06-0.43925l3.4378-3.4378 3.4232 3.4232a1.4993 1.4993 0 0 0 1.0747 0.45389 1.4993 1.4993 0 0 0 1.4993-1.4993 1.4993 1.4993 0 0 0-0.43925-1.06l-3.4496-3.4466 3.4232-3.4232a1.4993 1.4993 0 0 0 0.4656-1.0805 1.4993 1.4993 0 0 0-1.4993-1.4993z" color="#444444" fill="#212121" stroke-width="1.4993"/>
</svg>
